X:318
T:Betty's Maggot. (p)1695.PLFD.318
M:6/4
L:1/4
Q:3/4=110
S:Playford, Dancing Master,9th Ed,1695.
R:.Maggot
O:England
H:1695.
Z:Chris Partington.
K:G
D||:G>AGD2D|G>AGd2B|G>AGD2D|G>AGd2B:|
|:(cE)c(BG)B|(AF)Ac2A|ggdeeB|ggdeeB|
c>de/f/gdB|A>BAc2A|G>AGD2D|G>AGd2B:|
